apps/statesvisited/state-images/ND.svg

<svg height="635" width="1182" xmlns="http://www.w3.org/2000/svg"><path d="m496.38422 70.939117s-1.1878 16.333137-.2969 18.708867 3.8605 3.26663 4.1575 9.502923c.297 6.236283 1.7818 21.381553 1.7818 23.757283s2.6727 8.01809 1.7818 9.50292-2.0788 3.56359-2.0788 3.56359-16.0361-.89089-23.1633-1.78179-23.7573-2.07877-29.3997-2.07877c-5.6423 0-26.7269-1.18786-31.4784-1.78179-4.7514-.59394-23.7573-.59394-23.7573-.59394s2.9697-23.46032 3.2667-26.13302c.2969-2.67269 1.4848-23.460323 1.7818-26.72695.2969-3.266628.8909-11.58168.8909-11.58168s40.6843 2.375729 44.2479 3.563594c3.5636 1.187864 27.3209.593932 31.4784 1.484831 4.1575.890898 21.0846.593932 20.7876.593932z" fill="#20639b" fill-rule="evenodd" opacity=".9" stroke="#000"/></svg>

<?xml version="1.0" encoding="UTF-8" standalone="no"?>
<!-- Created with Inkscape (http://www.inkscape.org/) -->
<svg
   xmlns:dc="http://purl.org/dc/elements/1.1/"
   xmlns:cc="http://web.resource.org/cc/"
   xmlns:rdf="http://www.w3.org/1999/02/22-rdf-syntax-ns#"
   xmlns:svg="http://www.w3.org/2000/svg"
   xmlns="http://www.w3.org/2000/svg"
   xmlns:xlink="http://www.w3.org/1999/xlink"
   xmlns:sodipodi="http://sodipodi.sourceforge.net/DTD/sodipodi-0.dtd"
   xmlns:inkscape="http://www.inkscape.org/namespaces/inkscape"
   id="svg1923"
   sodipodi:version="0.32"
   inkscape:version="0.44"
   width="1182"
   height="635"
   version="1.0"
   sodipodi:docbase="/Users/amyshore/Desktop"
   sodipodi:docname="usa.svg">
  <metadata
     id="metadata1928">
    <rdf:RDF>
      <cc:Work
         rdf:about="">
        <dc:format>image/svg+xml</dc:format>
        <dc:type
           rdf:resource="http://purl.org/dc/dcmitype/StillImage" />
      </cc:Work>
    </rdf:RDF>
  </metadata>
  <defs
     id="defs1926" />
  <sodipodi:namedview
     inkscape:window-height="752"
     inkscape:window-width="1280"
     inkscape:pageshadow="2"
     inkscape:pageopacity="0.0"
     guidetolerance="10.0"
     gridtolerance="10.0"
     objecttolerance="10.0"
     borderopacity="1.0"
     bordercolor="#666666"
     pagecolor="#ffffff"
     id="base"
     inkscape:zoom="0.59527559"
     inkscape:cx="775.234"
     inkscape:cy="319.32597"
     inkscape:window-x="0"
     inkscape:window-y="22"
     inkscape:current-layer="layer2" />
  <g
     inkscape:groupmode="layer"
     id="layer1"
     inkscape:label="bg"
     style="opacity:1;display:none"
     sodipodi:insensitive="true">
    <image
       xlink:href="ElectoralCollege1996-Large.png"
       sodipodi:absref="/Users/amyshore/Desktop/ElectoralCollege1996-Large.png"
       width="1182"
       height="635"
       id="image1930"
       x="-1.3571358"
       y="1.6798911" />
  </g>
  <g
     inkscape:groupmode="layer"
     id="layer2"
     inkscape:label="vector"
     style="opacity:0.9;display:inline"> <path style="fill:#20639B;fill-opacity:1;fill-rule:evenodd;stroke:black;stroke-width:1px;stroke-linecap:butt;stroke-linejoin:miter;stroke-opacity:1" d="M 496.38422,70.939117 C 496.38422,70.939117 495.19642,87.272254 496.08732,89.647984 C 496.97822,92.023714 499.94782,92.914614 500.24482,99.150907 C 500.54182,105.38719 502.02662,120.53246 502.02662,122.90819 C 502.02662,125.28392 504.69932,130.92628 503.80842,132.41111 C 502.91752,133.89594 501.72962,135.9747 501.72962,135.9747 C 501.72962,135.9747 485.69352,135.08381 478.56632,134.19291 C 471.43912,133.30201 454.80902,132.11414 449.16662,132.11414 C 443.52432,132.11414 422.43972,130.92628 417.68822,130.33235 C 412.93682,129.73841 393.93092,129.73841 393.93092,129.73841 C 393.93092,129.73841 396.90062,106.27809 397.19762,103.60539 C 397.49452,100.9327 398.68242,80.145067 398.97942,76.87844 C 399.27632,73.611812 399.87032,65.29676 399.87032,65.29676 C 399.87032,65.29676 440.55462,67.672489 444.11822,68.860354 C 447.68182,70.048218 471.43912,69.454286 475.59662,70.345185 C 479.75412,71.236083 496.68122,70.939117 496.38422,70.939117 z " id="path12630" />   </g>
</svg>
